packages/icons/src/SVG/unlocked.svg

<svg width="12" height="12" viewBox="0 0 12 12" >
<path d="M7.5 7.5C7.5 8.15311 7.0826 8.70873 6.5 8.91465V10H5.5V8.91465C4.9174 8.70873 4.5 8.15311 4.5 7.5C4.5 6.67157 5.17157 6 6 6C6.82843 6 7.5 6.67157 7.5 7.5Z" />
<path fill-rule="evenodd" clip-rule="evenodd" d="M3 2C3 1.44772 3.44772 1 4 1H8C8.55228 1 9 1.44772 9 2H10C10 0.89543 9.10457 0 8 0H4C2.89543 0 2 0.89543 2 2V4H0V12H12V4H3V2ZM1 11V5H11V11H1Z" />
</svg>

<!-- Generated by IcoMoon.io -->
<svg version="1.1" xmlns="http://www.w3.org/2000/svg" width="12" height="12" viewBox="0 0 12 12">
<title>unlocked</title>
<path d="M7.5 7.5c0 0.653-0.417 1.209-1 1.415v1.085h-1v-1.085c-0.583-0.206-1-0.762-1-1.415 0-0.828 0.672-1.5 1.5-1.5s1.5 0.672 1.5 1.5z"></path>
<path d="M3 2c0-0.552 0.448-1 1-1h4c0.552 0 1 0.448 1 1h1c0-1.105-0.895-2-2-2h-4c-1.105 0-2 0.895-2 2v2h-2v8h12v-8h-9v-2zM1 11v-6h10v6h-10z"></path>
</svg>
